X: 29154
T: Never On A Sunday
R: barndance
M: 4/4
K: Fmajor
|:Fc=Bc Bcdc|BcAc GcFc|Ec=Bc Bcdc|e>fed cdBc:|AB/A/ ^GA BAGA|FB/A/ ^GA BAGA||
|:FCFE FGAB|c2 cB c2 cB|c2 cB cdBc|A8-|ACFE FGAB|c2 cB c2 cB|c2 cB ABGA|F8-:|
F2 c2 d2 e2|f4 f4-|ff ef g2 f2|e4 e4-|ee de f2 e2|d4 d4-|dd cd e2 c2|A8-|
A2 c2 d2 e2|f4 f4-|ff ef g2 f2|e4 e4-|ee de f2 e2|d4 d4-|dd cd e2 c2|F8-||
|:"to finish - - -" Fc=Bc Bcdc|BcAc GcFc|Ec=Bc Bcdc|e>fed cdBc:|AB/A/ ^GA BAGA|HF8||

